X:1
T:Partition sans titre
C:Compositeur / Arrangeur
L:1/8
M:4/4
I:linebreak $
K:D
V:1 treble nm="Violon" snm="Vln."
V:1
"D" f2 ef dfaf |"A" edcB AGFD | E2 CE A,ECE |"D" DEFG AcdA |"D" f2 ef dfaf |"A" edcB AGFD | %6
 E2 CE A,ABc |1"D" dfec d2 Ad :|2"D" dfec d2 z2 |:"G" G2 B2"D" A2 FA | dBAF Dcde | fdgf"A" edcd | %12
 eaec"D" AAFA |"G" GABG"D" A2 FA | dBAF D2 de | fdgf"A" edcB |1"D" AGFE DDEF :|2"D" AGFE Dcde |] %18
